liquidity/ui/public/base-pool.svg

<svg width="103" height="179" viewBox="0 0 103 179" fill="none" xmlns="http://www.w3.org/2000/svg">
<path d="M54.8431 94.7949L98.6752 120.247L98.6526 124.3L54.7001 149.859L47.7059 149.851L3.8678 124.394L3.87211 120.35L47.8628 94.8038L54.8431 94.7949Z" fill="#6B59FF"/>
<rect width="44.3767" height="44.3767" transform="matrix(0.864779 0.502153 -0.864779 0.502153 51.2146 103.506)" fill="#00D1FF"/>
<path d="M16.9326 128.164L51.2422 108.227L51.2422 112.942L20.9982 130.528L16.9326 128.164Z" fill="#008EAD"/>
<path d="M51.2146 108.246L85.5332 128.164L81.458 130.512L51.2146 112.964L51.2146 108.246Z" fill="#008EAD"/>
<path d="M12.8367 125.792L51.2145 103.507L51.2145 105.983L14.9759 127.037L12.8367 125.792Z" fill="#2D1EA6"/>
<path d="M51.2146 103.506L89.5879 125.789L87.4693 127.038L51.2146 105.986L51.2146 103.506Z" fill="#402FC8"/>
<path d="M14.8117 126.928L51.2176 105.769L51.2176 108.245L16.9231 128.171L14.8117 126.928Z" fill="#2D1EA6"/>
<path d="M51.2146 105.769L87.6608 126.913L85.5102 128.163L51.2146 108.249L51.2146 105.769Z" fill="#402FC8"/>
<mask id="path-9-inside-1_12669_13720" fill="white">
<path d="M3.66382 123.871L47.8464 149.526L47.8464 172.675L3.66382 147.02L3.66382 123.871Z"/>
</mask>
<path d="M3.66382 123.871L47.8464 149.526L47.8464 172.675L3.66382 147.02L3.66382 123.871Z" fill="#402FC8"/>
<path d="M47.4141 149.275L47.4141 172.424L48.2788 172.927L48.2788 149.777L47.4141 149.275Z" fill="#AEA4FF" mask="url(#path-9-inside-1_12669_13720)"/>
<mask id="path-11-inside-2_12669_13720" fill="white">
<path d="M54.8589 149.561L99.0411 123.906L99.0411 147.052L54.8589 172.708L54.8589 149.561Z"/>
</mask>
<path d="M54.8589 149.561L99.0411 123.906L99.0411 147.052L54.8589 172.708L54.8589 149.561Z" fill="#2D1EA6"/>
<path d="M55.2913 172.457L55.2913 149.31L54.4265 149.812L54.4265 172.959L55.2913 172.457Z" fill="#AEA4FF" mask="url(#path-11-inside-2_12669_13720)"/>
<mask id="path-13-inside-3_12669_13720" fill="white">
<path d="M47.8423 149.452H54.8675V172.675H47.8423V149.452Z"/>
</mask>
<path d="M47.8423 149.452H54.8675V172.675H47.8423V149.452Z" fill="#2D1EA6"/>
<path d="M47.8423 149.452V148.952H47.3423V149.452H47.8423ZM54.8675 149.452H55.3675V148.952H54.8675V149.452ZM47.8423 149.952H54.8675V148.952H47.8423V149.952ZM54.3675 149.452V172.675H55.3675V149.452H54.3675ZM48.3423 172.675V149.452H47.3423V172.675H48.3423Z" fill="#AEA4FF" mask="url(#path-13-inside-3_12669_13720)"/>
<path d="M3.66821 123.839L47.8528 149.507H54.8572L99.0474 123.838" stroke="#AEA4FF"/>
<path d="M12.8482 40H89.5897V123.16C89.5897 126.172 85.6793 127.966 82.9017 129.643L51.2124 148.049L19.4952 129.659C15.965 127.577 12.8352 126.172 12.8352 123.16V40H12.8482Z" fill="url(#paint0_linear_12669_13720)"/>
<path d="M80.2026 40H22.4473V125.684H80.2026V40Z" fill="url(#paint1_linear_12669_13720)"/>
<circle cx="22.9771" cy="22.9771" r="22.9771" transform="matrix(0.866025 0.5 -2.20305e-08 1 32.5779 13)" fill="#06061B"/>
<circle cx="22.9771" cy="22.9771" r="22.9771" transform="matrix(0.866025 0.5 -2.20305e-08 1 30.5803 14.1619)" fill="#06061B"/>
<circle cx="23.1357" cy="23.1357" r="23.1357" transform="matrix(0.866025 0.5 -2.20305e-08 1 30.5 14.3032)" fill="white"/>
<g clip-path="url(#clip0_12669_13720)">
<path d="M50.5011 72.1222C61.586 78.5221 70.5722 73.3521 70.5722 60.5746C70.5722 47.7971 61.586 32.2508 50.5011 25.8509C39.9844 19.7791 31.3568 24.1214 30.5 35.4941L57.0293 50.8108L57.0293 54.7003L30.5 39.3836C31.3568 51.7458 39.9844 66.0504 50.5011 72.1222Z" fill="#0052FF"/>
</g>
<defs>
<linearGradient id="paint0_linear_12669_13720" x1="51.2124" y1="40" x2="51.2124" y2="128.622" gradientUnits="userSpaceOnUse">
<stop stop-color="#2EDAFF" stop-opacity="0"/>
<stop offset="1" stop-color="#2EDAFF" stop-opacity="0.2"/>
</linearGradient>
<linearGradient id="paint1_linear_12669_13720" x1="51.3249" y1="40" x2="51.3249" y2="125.684" gradientUnits="userSpaceOnUse">
<stop stop-color="#2EDAFF" stop-opacity="0"/>
<stop offset="0.864583" stop-color="#2EDAFF" stop-opacity="0.2"/>
<stop offset="1" stop-color="#2EDAFF" stop-opacity="0"/>
</linearGradient>
<clipPath id="clip0_12669_13720">
<rect width="46.2714" height="46.2714" fill="white" transform="matrix(0.866025 0.5 -2.20305e-08 1 30.5 14.3032)"/>
</clipPath>
</defs>
</svg>

<svg width="103" height="179" fill="none" viewBox="0 0 103 179" xmlns="http://www.w3.org/2000/svg">
  <path fill="#6B59FF" d="m54.843 94.795 43.832 25.452-.022 4.053L54.7 149.859l-6.994-.008-43.838-25.457.004-4.044 43.99-25.546z"/>
  <path fill="#00D1FF" d="M51.215 103.506 89.59 125.79l-38.376 22.284-38.377-22.284z"/>
  <path fill="#008EAD" d="m16.933 128.164 34.31-19.937v4.715l-30.245 17.586z"/>
  <path fill="#008EAD" d="m51.215 108.246 34.318 19.918-4.075 2.348-30.243-17.548z"/>
  <path fill="#2D1EA6" d="m12.837 125.792 38.378-22.285v2.476l-36.24 21.054z"/>
  <path fill="#402FC8" d="m51.215 103.506 38.373 22.283-2.119 1.249-36.254-21.052z"/>
  <path fill="#2D1EA6" d="m14.812 126.928 36.406-21.159v2.476l-34.295 19.926z"/>
  <path fill="#402FC8" d="m51.215 105.769 36.446 21.144-2.15 1.25-34.296-19.914z"/>
  <mask id="a" fill="#fff">
    <path d="m3.664 123.871 44.182 25.655v23.149L3.664 147.02z"/>
  </mask>
  <path fill="#402FC8" d="m3.664 123.871 44.182 25.655v23.149L3.664 147.02z"/>
  <path fill="#AEA4FF" d="M47.414 149.275v23.149l.865.503v-23.15z" mask="url(#a)"/>
  <mask id="b" fill="#fff">
    <path d="m54.859 149.561 44.182-25.655v23.146L54.86 172.708z"/>
  </mask>
  <path fill="#2D1EA6" d="m54.859 149.561 44.182-25.655v23.146L54.86 172.708z"/>
  <path fill="#AEA4FF" d="M55.291 172.457V149.31l-.864.502v23.147z" mask="url(#b)"/>
  <mask id="c" fill="#fff">
    <path d="M47.842 149.452h7.026v23.223h-7.026z"/>
  </mask>
  <path fill="#2D1EA6" d="M47.842 149.452h7.026v23.223h-7.026z"/>
  <path fill="#AEA4FF" d="M47.842 149.452v-.5h-.5v.5zm7.026 0h.5v-.5h-.5zm-7.026.5h7.026v-1h-7.026zm6.526-.5v23.223h1v-23.223zm-6.026 23.223v-23.223h-1v23.223z" mask="url(#c)"/>
  <path stroke="#AEA4FF" d="m3.668 123.839 44.185 25.668h7.004l44.19-25.669"/>
  <path fill="url(#d)" d="M12.848 40H89.59v83.16c0 3.012-3.91 4.806-6.688 6.483l-31.69 18.406-31.717-18.39c-3.53-2.082-6.66-3.487-6.66-6.499V40z"/>
  <path fill="url(#e)" d="M80.203 40H22.447v85.684h57.756z"/>
  <circle cx="22.977" cy="22.977" r="22.977" fill="#06061B" transform="matrix(.86603 .5 0 1 32.578 13)"/>
  <circle cx="22.977" cy="22.977" r="22.977" fill="#06061B" transform="matrix(.86603 .5 0 1 30.58 14.162)"/>
  <circle cx="23.136" cy="23.136" r="23.136" fill="#fff" transform="matrix(.86603 .5 0 1 30.5 14.303)"/>
  <g clip-path="url(#f)">
    <path fill="#0052FF" d="M50.501 72.122c11.085 6.4 20.071 1.23 20.071-11.547S61.586 32.25 50.502 25.85c-10.518-6.072-19.145-1.73-20.002 9.643L57.03 50.81v3.89L30.5 39.383c.857 12.362 9.484 26.666 20.001 32.738"/>
  </g>
  <defs>
    <linearGradient id="d" x1="51.212" x2="51.212" y1="40" y2="128.622" gradientUnits="userSpaceOnUse">
      <stop stop-color="#2EDAFF" stop-opacity="0"/>
      <stop offset="1" stop-color="#2EDAFF" stop-opacity=".2"/>
    </linearGradient>
    <linearGradient id="e" x1="51.325" x2="51.325" y1="40" y2="125.684" gradientUnits="userSpaceOnUse">
      <stop stop-color="#2EDAFF" stop-opacity="0"/>
      <stop offset=".865" stop-color="#2EDAFF" stop-opacity=".2"/>
      <stop offset="1" stop-color="#2EDAFF" stop-opacity="0"/>
    </linearGradient>
    <clipPath id="f">
      <path fill="#fff" d="M30.5 14.303 70.572 37.44v46.27L30.5 60.575z"/>
    </clipPath>
  </defs>
</svg>
